X:1
T:Title
%%score 1 { 2 | 3 }
L:1/8
Q:1/4=95
M:6/8
K:G
V:1 treble nm="Grand Piano, Soprano"
V:2 bass nm="Choir Pad, Choose Ye Today (Latta)"
V:3 bass 
V:1
 [DB][DB][DB] [Ec]2 [DB] | [DA][DG][DA] .[DB]3 | [DG][DG][DG] .[EA]3 | [DF][DE][DF] .[DG]3 | %4
w: By~William~Church,~Jr. * * * *||||
 [DB][DB][DB] [Ec]2 [DB] | [DA][DG][DA] .[DB]3 | [DG][DG][DG] .[EA]3 | [DF][DE][DF] .[DG]3 | %8
w: ||||
 [Gd][Gd][Gd] [Ge]2 [Gd] | [Fd][Fc][Fc] .[Fc]3 | [Fc][Fc][Fc] [Fd]2 [Fc] | [Ac][GB][GB] .[GB]3 | %12
w: ||||
 [FB][FB][FB] [GB]2 [GB] | [EA][EG][CE] .[B,D]3 | E[Ec][EA] [DG]2 [DF] | [DG]6- | [DG]3 z3 |] %17
w: |||||
V:2
 G,G,G, G,2 G, | F,E,F, .G,3 | G,G,G, .C3 | A,G,A, .B,3 | G,G,G, G,2 G, | F,E,F, .G,3 | %6
 G,G,G, .C3 | A,G,A, .B,3 | B,B,B, C2 B, | A,A,A, .A,3 | A,A,A, A,2[K:treble] D | DDD .D3 | %12
 ^DDD E2[K:bass] B, | CG,G, .G,3 | G,G,C B,2 A, | B,6- | B,3 z3 |] %17
V:3
 z6 | D,D,D, z3 | B,,B,,B,, .C,3 | D,D,D, .G,,3 | z6 | D,D,D, z3 | B,,B,,B,, .C,3 | D,D,D, .G,,3 | %8
 G,G,G, G,2 G, | D,D,D, .D,3 | D,D,D, D,2 D, | G,G,G, .G,3 | B,,B,,B,, E,2 E, | C,C,C, .G,,3 | %14
 C,C,C, D,2 D, | G,,6- | G,,3 z3 |] %17

